!!!ONB: MCCC : IJB0007_04 : Extracted Monophonic Melody
!!!COM: Brahms, Johannes
!!!OPR: Ballades
!!!OMV: 4
!!!SCT: Op.10
!!!ODT: 1854///
**kern
*staff1
=1
*clefG2
*k[f#c#g#d#a#]
*B:
*M3/4
8dd
8dd[
2dd]
=2
8r
8b
4f#
4r
=3
8ff#
8ff#[
4ff#]
4r
=4
8r
8a#
4d#
4b
=5
8g#
8g#[
2g#]
=6
8r
8f#
4B
4r
=7
8cc#
8cc#[
4cc#]
4r
=8
8r
8f#
4c#
4f#
=9
8g#
8g#[
2g#]
=10
8r
8f#
4B
4r
=11
8b
8b[
4b]
4r
=12
8r
8c#
4E
4r
=13
8d#
8d#[
2d#]
=14
8r
8B
4F#
4r
=15
2.r
=16
2.r
=17
8dd
8dd[
2dd]
=18
8r
8b
4f#
4r
=19
8ff#
8ff#[
4ff#]
4r
=20
8r
8a#
4d#
4b
=21
8g#
8g#[
2g#]
=22
8r
8f#
4B
4r
=23
8cc#
8cc#[
4cc#]
4r
=24
8r
8f#
4c#
4f#
=25
8g#
8g#[
2g#]
=26
8r
8f#
4B
4r
=27
8b
8b[
4b]
4r
=28
8r
8c#
4E
4r
=29
8d#
8d#[
2d#]
=30
8r
8B
4F#
4r
=31
2.r
=32
2.r
=33
8dd
8dd[
4dd]
4r
=34
8r
8b
4e
4b
=35
8ff#[
8ff#]
4ee
4dd
=36
8cc#
8cc#[
4cc#]
4r
=37
8r
8ff##
4aa
4ff##
=38
8ff#
8ff#[
4ff#]
4r
=39
8r
8cc#
4dd
4cc#
=40
8cc#
8cc#[
4cc#]
4r
=41
8r
8f##
4a
4f##
=42
8f##
8f##[
4f##]
4r
=43
8r
8f#
4B#
4a#
=44
8b#
8b#[
4b#]
4r
=45
8r
8b
4f#
4dd#
=46
8cc#
8cc#[
4cc#]
4r
=47
8r
8f#
4B
4r
=48
8a#
8a#[
2a#]
=49
8r
8g#
4B
4g#
=50
8a#
8a#[
4a#]
4r
=51
8r
8f#
4B
4a
=52
8g#
8g#[
4g#]
4r
=53
8r
8f#
4B
4f#
=54
8a
8a[
4a]
4r
=55
8r
8g#
4c#
4g#
=56
8dd#
8dd#[
4dd#]
4r
=57
8r
8dd#
4a
4ff#
=58
8ee
8ee[
4ee]
4r
=59
8r
8f##
4c#
4r
=60
8a
8a[
4a]
4r
=61
8r
8d#
4F#
4r
=62
4r
4r
4B
=63
*M6/4
4B
12r
12f#
12F#
4A#
12r
12f#
12F#
4d#
12r
12f#
12F#
=64
4B
12r
12f#
12F#
4A#
12r
12f#
12F#
4G#
12r
12e#
12E#
=65
4A#
12r
12e#
12E#
12E#
12e#
12E#
4A#
12r
12e#
12E#
12E#
12e#
12E#
=66
4A#
12r
12e#
12E#
4A#
2r
12r
12e#
12E#
=67
4A#
12r
12e#
12E#
4G#
12r
12e#
12E#
4c#
12r
12e#
12E#
=68
4A#
12r
12e#
12E#
4G#
2.r
=69
1.r
=70
1.r
=71
12r
12f#
12F#
4B
12r
12f#
12F#
4d#
12r
12f#
12F#
4c#
=72
12r
12f#
12F#
4B
12r
12f#
12F#
4G#
12r
12f#
12F#
4A
=73
12r
12e#
12E#
2A#
2.r
=74
12A#
12e#
12A#
12A#
12e#
12A#
12A#
12e#
12A#
12A#
12e#
12E#
12A#
12e#
12E#
12A#
12e#
12A#
=75
12A#
12e#
12A#
12A#
12e#
12A#
12G#
12e#
12G#
12c#
12e#
12c#
12c#
12e#
12c#
12B
12e#
12B
=76
12A#
12e#
12A#
12A#
12e#
12A#
12G#
12e#
12G#
2.r
=77
1.r
=78
1.r
=79
1.r
=80
2.r
8r
8G#
12e
12g#
12e
16r
16g#[
8g#]
=81
4d#
12r
12g#
12B
4d
8g#[
8g#]
12f#
12g#
12f#
16r
16g#[
8g#]
=82
12d#
12g#
12d#
16r
16g#[
8g#]
12f#
12g#
12f#
8g#[
8g#]
12f#
12g#
12f#
16r
16g#[
8g#]
=83
12e
12g#
12e
16r
16g#[
8g#]
12c#
12e
12c#
8e[
8e]
12B
12e
12B
16r
16e[
8e]
=84
12A#
12c#
12A#
16r
16c#[
8c#]
12A#
12c#
12A#
8c#[
8c#]
12A#
6f#[
4f#]
=85
12B
12f#
12B
12B
12f#
12B
12A#
12f#
12A#
12d#
12f#
12d#
12d#
12f#
12d#
12c#
12f#
12c#
=86
12B
12f#
12B
12B
12f#
12B
12A#
12f#
12A#
12G#
12f#
12G#
12G#
12f#
12G#
12A
12e#
12G##
=87
12A#
12e#
12A#
12A#
12e#
12A#
12B#
12e#
12B#
12d
12e#
12d
12d
12e#
12d
12e
12e#
12e
=88
16e#
16e#
8e#[
8e#]
16e#[
16e#]
12e#
12E#
12e#
12E#
12e#
12E#
12e#
12E#
12e#
12g#
12b
12g#
=89
12g#
12b
12g#
12f#
12a#
12f#
12e#
12g#
12e#
12e#
12g#
12e#
12e#
12g#
12e#
12e
12f##
12e
=90
12e
12f##
12e
12d#
12f#
12d#
12c#
12e#
12c#
12c#
12e#
12c#
12c#
12e#
12c#
4r
=91
1.r
=92
1.r
=93
1.r
=94
1.r
=95
1.r
=96
4r
4A#
4c#
4r
4a#
4cc#
=97
*M3/4
8dd
16dd
16dd
4dd[
4dd]
=98
8dd#
16dd#
16dd#
4dd#[
4dd#]
=99
8ff#
16ff#
16ff#[
4ff#]
4dd#
=100
8cc#
16cc#
16cc#[
4cc#]
4b
=101
8g#
16g#
16g#
4g#[
4g#]
=102
8a#
16a#
16a#
4a#[
4a#]
=103
8cc#
16cc#
16cc#[
4cc#]
4g#
=104
8a#
16a#
16a#[
4a#]
4f#
=105
8g#
16g#
16g#
4g#[
4g#]
=106
8a
16a
16a
4a[
4a]
=107
8b
16b
16b[
4b]
4e#
=108
8e
16e
16e
4e[
4e]
=109
8d#
16d#
16d#
4d#[
4d#]
=110
8d
16d
16d
4d[
4d]
=111
2.r
=112
2.r
=113
2.r
=114
2.r
=115
2.r
=116
2.r
=117
2.r
=118
2.r
=119
2.r
=120
2.r
=121
2.r
=122
2.r
=123
2.r
=124
2.r
=125
2.r
=126
2.r
=127
2.r
=128
2.r
=129
2.r
=130
2.r
=131
2.r
=132
2.r
=133
2.r
=134
2.r
=135
4e#
4b
4a#
=136
4g#
4f#
4r
=137
2.r
=138
2.r
=139
2.r
=140
2.r
=141
4f#
4e
4d
=142
2c#
4B
=143
8F##
8b
4a
4f##
=144
2f#
4e
=145
4e
4d
4c#
=146
2c#
4r
=147
2.r
=148
2.r
=149
2.r
=150
2.r
=151
2.r
=152
4f##
4b
4a
=153
4f#
4e
4d
=154
2.r
=155
2.r
=156
2.r
=157
2.r
=158
2.r
=159
*M6/4
1.r
=160
1.r
=161
1.r
=162
1.r
=163
1.r
=164
1.r
=165
2.r
2dd
4dd#
=166
2ff#
4dd#
2.cc#
=167
2.r
2dd
4dd#
=168
2ff#
4dd#
2.cc#
=169
1.r
=170
1.r
=171
1.r
=172
1.r
==
*-
